!!!OTL@@DE: &Auml;chtes Gl&uuml;ck
!!!COM: Kempt, F.A.
!!!CDT: 1842
!!!OMD: M&auml;ssig
!!!LYR: Schiller (Zu Anfang dieses Jahrhanderts)
!!!OCL: Erk, Ludwig
!!!GCO: Deutscher Liederschatz, Band 2
**kern	**kern	**kern
*staff3	*staff2	*staff1
*Ipiano	*Ipiano	*Ivox
*clefF4	*clefG2	*clefG2
*k[f#c#g#]	*k[f#c#g#]	*k[f#c#g#]
*met(C)	*met(C)	*met(C)
*M4/4	*M4/4	*M4/4
*MM118	*MM118	*MM118
4E\ 4G#\	8.e/ 8.cc#/L	8.cc#\
.	16d/ 16b/Jk	16b\
=1	=1	=1
1AA 1E 1A	(8c#/ 8a/L	4.a/
.	8e/	.
.	8a/	.
.	8e/J	8a/
.	8c#/L	8g#/
.	8e/	8a/
.	8c#/	8g#/
.	8e/J)	8a/
=2	=2	=2
1D 1F#	(8d/L	4a#/
.	8f#/	.
.	8b/	4b\
.	8f#/J	.
.	8d/L	4r
.	8f#/	.
.	8d/	8a#/
.	8f#/J)	8b\
=3	=3	=3
*^	*^	*
1A	2E\	(8c#/L	2r	4.cc#\
.	.	8e/	.	.
.	.	8a/	.	.
.	.	8e/J)	.	8cc#\
.	2F#\	(8d#/L	2d#\	8b\
.	.	8a/	.	8an/
.	.	8g#/	.	8g#/
.	.	8a/J)	.	8a/
*	*	*v	*v	*
=4	=4	=4	=4
(8G#/L	2E\	4e/ 4b/	4b\
8B/	.	.	.
8A#/	.	8f##\ (8ff##\L	4r
8B/J)	.	8g#\ 8gg#\J)	.
4G#/	4E\	4e/ 4ee/	4r
4ryy	4r	4r	8e/
.	.	.	8e/
*v	*v	*	*
=5	=5	=5
1EE 1E	(8B/L	(4dd\
.	8e/	.
.	8g#/	8cc#\)
.	8e/J	8b\
.	8B/L	8ee\
.	8e/	8dd\
.	8g#/	8cc#\
.	8e/J)	8b\
=6	=6	=6
*^	*	*
1E 1A	1AA	(8c#/L	8.a/L
.	.	8e/	.
.	.	.	16b/Jk
.	.	8a/	4cc#\
.	.	8e/J	.
.	.	8c#/L	4r
.	.	8e/	.
.	.	8a/	8cc#\
.	.	8cc#/J)	8cc#\
*v	*v	*	*
=7	=7	=7
*	*^	*
(4D/	(8a#/L	2f#\	8a#/
.	8b/	.	8b\
8C#/L	8a#/ 8cc#/	.	8cc#\
8BB/J)	8b/ 8dd/J)	.	8dd\
4E\	4an/	(8c#\L	4an/
.	.	8e\	.
4D\	4b/	8g#\	4b\
.	.	8f#\J)	.
=8	=8	=8	=8
4C#/	4cc#/	8e#\L	4.cc#\
.	.	8g#\	.
4r	4r	8e#\	.
.	.	8c#\J	8r
*	*v	*v	*
8d\L	4r	4r
8c#\	.	.
8B\	8e#/ 8cc#/L	8cc#\
8A\J	8f#/ 8cc#/J	8cc#\
=9	=9	=9
(8A#\L	(8gn/ 8cc#/ 8ee/L	8ee\
8B\	8f#/ 8dd/	8dd\
8c#\	8e/ 8a#/ 8cc#/	8cc#\
8d\J)	8f#/) 8b/J	8b\
*	*^	*
4E\	4an/	(8c#\L	(4a/
.	.	8e\	.
4EE/ 4E/	4g#/	8d\	8.cc#\)
.	.	8e\J)	.
.	.	.	16b\
*	*v	*v	*
=10	=10	=10
*^	*	*
(8AA/L	2AA\	4c#/ 4a/	4a/
8C#/	.	.	.
8BB#/	.	(8d#/ 8dd#/L	4r
8C#/J)	.	8e/) 8ee/J	.
4E/	4AA\	4c#/ 4a/	4r
*v	*v	*	*
==	==	==
*-	*-	*-
!!!ENC: Craig Stuart Sapp
!!!END: 2004/05/19/
!!!EFL: 202/600
